public/errow.svg

<svg fill="none" height="20" viewBox="0 0 8 20" width="8" xmlns="http://www.w3.org/2000/svg"><path d="m3.32809 19.3536c.19526.1952.51184.1952.7071 0l3.18199-3.182c.19526-.1953.19526-.5119 0-.7071-.19527-.1953-.51185-.1953-.70711 0l-2.82843 2.8284-2.828426-2.8284c-.195262-.1953-.511844-.1953-.707107 0-.1952618.1952-.1952618.5118 0 .7071zm.35355-19.3536-.5.00000002v18.99999998h.5.5v-19.00000002z" fill="#000"/></svg>

<svg width="8" height="20" viewBox="0 0 8 20" fill="none" xmlns="http://www.w3.org/2000/svg">
<path d="M3.32809 19.3536C3.52335 19.5488 3.83993 19.5488 4.03519 19.3536L7.21718 16.1716C7.41244 15.9763 7.41244 15.6597 7.21718 15.4645C7.02191 15.2692 6.70533 15.2692 6.51007 15.4645L3.68164 18.2929L0.853214 15.4645C0.657952 15.2692 0.34137 15.2692 0.146107 15.4645C-0.0491548 15.6597 -0.0491548 15.9763 0.146107 16.1716L3.32809 19.3536ZM3.68164 0L3.18164 2.18557e-08L3.18164 19L3.68164 19L4.18164 19L4.18164 -2.18557e-08L3.68164 0Z" fill="black"/>
</svg>
